!!! OTL: Berkowitz212
!!! Chapter: 1
!!! Section: II
!!! Page: 49
!!! Mode: 
!!! Encoder: DJB
**kern
*staff1
*I"Piano
=1-
*clefF4
*k[b-]
*d:
*M2/4
4r
8r
8A\
=2
8d\L
16c\L
16B-\JJ
8A\L
8G\J
=3
8F\L
8E\J
8D\
16r
16D\
=4
8C#\L
16D\L
16E\JJ
8F\L
8G\J
=5
4F\
8E\L
8A\J
=6
8B-\L
16A\L
16G\JJ
8F\L
8E\J
=7
8A\L
16G\L
16F\JJ
8E\L
8D\J
=8
8C#/L
16BBn/L
16C#/JJ
8D\L
8E\J
=9
!!linebreak:original
8F\L
8G\J
8A\
16r
16A\
=10
8B-\L
16A\L
16G\JJ
8F\L
8E\J
=11
8A\L
16G\L
16F\JJ
8E\L
8D\J
=12
8C#/L
16BBn/L
16C#/JJ
8D\L
8E\J
=13
4E\
8D\
8r
==
*-
